X: 6227
T: Carmel Mahoney Mulhaire
R: reel
M: 4/4
K: Dmajor
AFFF DFFF|AFFF ABde|fffa b2af|effe cABc|
d2cA (3Bcd AF|DEED AFFF|GGGA Bcde|f2eg fed2:|
fffe fffe|dfff afff|DFAd fdaf|g2fg efde|
f2fe fffe|dfff afff|gggf g2ag|fgeg fede|
fffe fffe|dfff afff|bfff afff|g2fg efde|
f2fe fffe|dfff afff|gggf g2ag|fgeg fed2|
|:adfa bdgb|affe f2ag|ggfg efga|b2ag agfg|
~a3d' ~b3d'|affe f2ag|ggfg efdB|1 AFGE D2fg:|2 AFGE D4||
|:FAAA FADF|Adfa bagf|g2fd efdB|BAGB AGFE|
FAAA FADF|Adfa bagf|g2fd efdB|AFGE D4:|

